X: 157
T: No_239_Drinking_Song_(c).krn
N: Derived from No_239_Drinking_Song_(c).krn
%%abc-version 2.0
%%abcx-abcm2ps-target-version 5.9.1 (29 Sep 2008)
%%abc-creator hum2abc beta
%%abcx-conversion-date 2019/03/15 08:38:45
%%humdrum-veritas 1523955215
%%humdrum-veritas-data 213747731
%%linebreak <none>
%%barnumbers 0
L: 1/8
M: 3/4
K: G clef=treble
[K:clef=treble][M:3/4]z4z G | 
(G4E)G ||  
[M:2/4]E2D z | 
ED ED ||  
[M:3/8]E2E ||  
[M:2/4]B,3E | 
E2E z ||  
[M:3/4]E2=FE FE ||  
[M:2/4]G3A | 
GF E z | 
G3/E/ =FE | 
z2ED | 
B,3E | 
E2E z



